openframe-frontend-core/src/components/icons-v2/brand-logos/linux-logo.svg

<svg width="24" height="24" viewBox="0 0 24 24" fill="none" xmlns="http://www.w3.org/2000/svg">
<path d="M19.5665 18.3141C19.0389 18.0972 18.6042 17.7556 18.6357 17.1013C18.6664 16.448 18.1694 16.015 18.1694 16.015C18.1694 16.015 18.6042 14.5845 18.2002 13.4033C17.797 12.2204 16.4629 10.3253 15.4392 8.8956C14.4171 7.46507 15.2849 5.81673 14.3549 3.7038C13.4232 1.59088 11.004 1.71473 9.70073 2.61658C8.39654 3.51677 8.79974 5.75437 8.86111 6.8134C8.92335 7.86899 8.88924 8.62142 8.76903 8.89473C8.64629 9.16804 7.8075 10.1707 7.24833 11.0094C6.68999 11.8481 6.2868 13.5894 5.88191 14.3043C5.47872 15.0191 5.7583 15.6716 5.7583 15.6716C5.7583 15.6716 5.47872 15.7639 5.26133 16.2328C5.04395 16.6973 4.61009 16.9151 3.83441 17.0689C3.05873 17.2243 3.05873 17.7239 3.24453 18.2834C3.43121 18.8419 3.2454 19.1545 3.02802 19.8676C2.81064 20.5808 3.89665 20.8002 4.95108 20.9224C6.00639 21.0479 7.18526 21.732 8.1792 21.8559C9.17056 21.9806 9.48168 21.1726 9.48168 21.1726C9.48168 21.1726 10.5984 20.9224 11.7764 20.8933C12.9561 20.8617 14.0711 21.1419 14.0711 21.1419C14.0711 21.1419 14.2885 21.6389 14.6917 21.8558C15.0958 22.0736 15.9644 22.1052 16.5227 21.5159C17.0819 20.9241 18.5711 20.1793 19.4081 19.7122C20.2476 19.2442 20.0942 18.5302 19.5665 18.3141ZM12.3057 4.60573C12.8376 4.60573 13.2672 5.13438 13.2672 5.78604C13.2672 6.24893 13.0515 6.64779 12.737 6.84163C12.6568 6.80663 12.5725 6.77076 12.483 6.73232C12.6722 6.63836 12.8069 6.39669 12.8069 6.11482C12.8069 5.7476 12.5801 5.4495 12.2997 5.4495C12.0227 5.4495 11.7951 5.74843 11.7951 6.11482C11.7951 6.25063 11.8275 6.38129 11.8829 6.48803C11.7175 6.42226 11.5649 6.36078 11.4456 6.31552C11.3808 6.15667 11.3441 5.97732 11.3441 5.786C11.3441 5.13438 11.7738 4.60573 12.3057 4.60573ZM12.2366 7.09444C12.5026 7.18669 12.7984 7.36006 12.7677 7.5317C12.7362 7.70421 12.5963 7.70421 12.2366 7.92458C11.8761 8.14322 11.0952 8.62831 10.8455 8.6599C10.594 8.6915 10.4542 8.55059 10.1882 8.37891C9.9223 8.20641 9.42193 7.79729 9.54807 7.57953C9.54807 7.57953 9.93763 7.2806 10.109 7.12433C10.2812 6.96718 10.7193 6.59224 10.9853 6.64094C11.2512 6.68619 11.9707 7.00048 12.2366 7.09444ZM9.83876 4.79277C10.2582 4.79277 10.5991 5.29323 10.5991 5.91072C10.5991 6.02431 10.588 6.12935 10.5667 6.23099C10.4644 6.26599 10.3604 6.32237 10.2599 6.40777C10.2087 6.44962 10.1635 6.4889 10.12 6.52818C10.1866 6.4035 10.2129 6.22584 10.1831 6.03881C10.1268 5.70147 9.90266 5.45548 9.68018 5.49052C9.45857 5.52897 9.32472 5.83213 9.38099 6.1712C9.4381 6.51028 9.66145 6.75623 9.88306 6.71949C9.89586 6.71692 9.9078 6.71351 9.92056 6.70923C9.81232 6.81344 9.71258 6.90312 9.61114 6.9791C9.30429 6.83649 9.07924 6.41201 9.07924 5.90981C9.07928 5.2924 9.41936 4.79277 9.83876 4.79277ZM9.01961 20.4997C8.92074 20.9455 8.3999 21.2691 8.3999 21.2691C7.92767 21.4177 6.61495 20.8472 6.01994 20.597C5.4258 20.3502 3.91277 20.2733 3.71416 20.053C3.51724 19.8275 3.81303 19.3313 3.8889 18.8607C3.96221 18.3867 3.74059 18.0903 3.8139 17.7667C3.8889 17.4447 4.85553 17.4447 5.22636 17.2218C5.59885 16.9972 5.67302 16.3515 5.97051 16.1782C6.26799 16.0031 6.8127 16.624 7.03601 16.9733C7.25849 17.3191 8.10151 18.8103 8.44847 19.1827C8.79626 19.5551 9.11848 20.0538 9.01961 20.4997ZM14.5066 16.1679C14.4171 16.606 14.4171 18.1894 14.4171 18.1894C14.4171 18.1894 13.4556 19.5243 11.9647 19.743C10.4755 19.9616 9.73052 19.8044 9.73052 19.8044L8.89343 18.8419C8.89343 18.8419 9.5438 18.7471 9.45177 18.0947C9.35799 17.4422 7.46651 16.5403 7.12468 15.7315C6.78456 14.9244 7.06331 13.5554 7.49804 12.8713C7.93194 12.188 8.20982 10.6968 8.64455 10.1981C9.07928 9.70271 9.4194 8.64537 9.26426 8.17822C9.26426 8.17822 10.1951 9.29787 10.8455 9.11253C11.4967 8.9255 12.9569 7.83657 13.1726 8.02448C13.3891 8.21151 15.2508 12.3135 15.4357 13.6194C15.6224 14.9244 15.3113 15.9185 15.3113 15.9185C15.3113 15.9185 14.5986 15.7323 14.5066 16.1679ZM19.2682 19.0964C18.9784 19.3629 17.3656 20.0154 16.8823 20.5244C16.4015 21.0291 15.7732 21.44 15.3888 21.3204C15.0018 21.1982 14.6651 20.6679 14.8339 19.8941C15.0018 19.1229 15.1476 18.2774 15.1237 17.794C15.0998 17.3106 15.0018 16.6572 15.1237 16.5607C15.2439 16.4668 15.4357 16.5138 15.4357 16.5138C15.4357 16.5138 15.3411 17.4302 15.8943 17.6736C16.4475 17.9127 17.2437 17.5771 17.4849 17.3337C17.727 17.0937 17.8958 16.7316 17.8958 16.7316C17.8958 16.7316 18.1361 16.8537 18.1123 17.2389C18.0884 17.6249 18.2802 18.1818 18.6433 18.3739C19.0039 18.5644 19.558 18.8317 19.2682 19.0964Z" fill="#888888"/>
</svg>

<svg xmlns="http://www.w3.org/2000/svg" width="24" height="24" fill="none" viewBox="0 0 24 24">
  <path fill="#888" d="M19.567 18.314c-.528-.217-.963-.558-.931-1.213.03-.653-.467-1.086-.467-1.086s.435-1.43.031-2.612c-.403-1.183-1.737-3.078-2.76-4.507-1.023-1.43-.155-3.08-1.085-5.192-.932-2.113-3.351-1.99-4.654-1.087-1.304.9-.901 3.137-.84 4.196.062 1.056.028 1.808-.092 2.082-.123.273-.962 1.276-1.52 2.114-.559.84-.962 2.58-1.367 3.295-.403.715-.124 1.368-.124 1.368s-.28.092-.497.56c-.217.465-.65.683-1.427.837-.775.155-.775.655-.59 1.214.187.559.001.871-.216 1.585-.217.713.869.932 1.923 1.054 1.055.126 2.234.81 3.228.934.992.125 1.303-.683 1.303-.683s1.116-.25 2.294-.28c1.18-.031 2.295.249 2.295.249s.218.497.62.714c.405.218 1.273.25 1.832-.34.559-.592 2.048-1.337 2.885-1.804.84-.468.686-1.182.159-1.398ZM12.306 4.606c.532 0 .961.528.961 1.18 0 .463-.215.862-.53 1.056l-.254-.11c.19-.094.324-.335.324-.617 0-.367-.227-.666-.507-.666-.277 0-.505.3-.505.666a.82.82 0 0 0 .088.373 27.116 27.116 0 0 0-.437-.172 1.401 1.401 0 0 1-.102-.53c0-.652.43-1.18.962-1.18Zm-.07 2.488c.267.093.562.266.532.438-.032.172-.172.172-.531.393-.36.218-1.142.703-1.392.735-.251.031-.39-.11-.657-.281-.266-.173-.766-.582-.64-.8 0 0 .39-.298.561-.455.172-.157.61-.532.876-.483.266.045.986.36 1.252.453ZM9.84 4.793c.42 0 .76.5.76 1.118 0 .113-.011.218-.032.32a.944.944 0 0 0-.307.177 3.69 3.69 0 0 0-.14.12.799.799 0 0 0 .063-.49c-.056-.337-.28-.583-.503-.547-.221.038-.355.341-.299.68.057.34.28.585.502.548a.304.304 0 0 0 .038-.01 3.34 3.34 0 0 1-.31.27c-.307-.143-.532-.567-.532-1.07 0-.617.34-1.116.76-1.116ZM9.019 20.5c-.098.445-.62.77-.62.77-.471.148-1.784-.423-2.38-.673-.593-.247-2.106-.324-2.305-.544-.197-.226.099-.722.175-1.192.073-.474-.148-.77-.075-1.094.075-.322 1.042-.322 1.412-.545.373-.225.447-.87.745-1.044.297-.175.842.446 1.065.795.222.346 1.066 1.837 1.412 2.21.348.372.67.87.572 1.317Zm5.488-4.332c-.09.438-.09 2.021-.09 2.021s-.961 1.335-2.452 1.554c-1.49.219-2.234.061-2.234.061l-.838-.962s.65-.095.559-.747c-.094-.653-1.985-1.555-2.327-2.363-.34-.808-.062-2.177.373-2.86.434-.684.712-2.175 1.147-2.674.434-.495.774-1.553.62-2.02 0 0 .93 1.12 1.58.935.652-.188 2.112-1.276 2.328-1.089.216.188 2.078 4.29 2.263 5.595.186 1.305-.125 2.3-.125 2.3s-.712-.187-.804.249Zm4.761 2.928c-.29.267-1.902.92-2.386 1.428-.48.505-1.109.916-1.493.796-.387-.122-.724-.652-.555-1.426.168-.771.314-1.617.29-2.1-.024-.483-.122-1.137 0-1.233.12-.094.312-.047.312-.047s-.095.916.458 1.16c.554.239 1.35-.097 1.59-.34.243-.24.412-.602.412-.602s.24.122.216.507c-.024.386.168.943.531 1.135.36.19.915.458.625.722Z"/>
</svg>
